style/elvis/src/icons/svg/src/lock.svg

<svg width="24" height="24" fill="none" xmlns="http://www.w3.org/2000/svg"><path d="M5.25 24A2.252 2.252 0 013 21.75v-10.5A2.252 2.252 0 015.25 9H6V6c0-3.308 2.692-6 6-6s6 2.692 6 6v3h.75A2.252 2.252 0 0121 11.25v10.5A2.252 2.252 0 0118.75 24H5.25zm0-13.5a.75.75 0 00-.75.75v10.5c0 .414.336.75.75.75h13.5a.75.75 0 00.75-.75v-10.5a.75.75 0 00-.75-.75H5.25zM16.5 9V6c0-2.481-2.019-4.5-4.5-4.5A4.505 4.505 0 007.5 6v3h9z" fill="#000"/><path d="M12 18.75a.75.75 0 01-.75-.75v-3a.75.75 0 011.5 0v3a.75.75 0 01-.75.75z" fill="#000"/></svg>

<svg width="24" height="24" viewBox="0 0 24 24" fill="none" xmlns="http://www.w3.org/2000/svg">
<path d="M5.25 24C4.009 24 3 22.991 3 21.75V11.25C3 10.009 4.009 9 5.25 9H6V6C6 2.692 8.692 0 12 0C15.308 0 18 2.692 18 6V9H18.75C19.991 9 21 10.009 21 11.25V21.75C21 22.991 19.991 24 18.75 24H5.25ZM5.25 10.5C4.836 10.5 4.5 10.836 4.5 11.25V21.75C4.5 22.164 4.836 22.5 5.25 22.5H18.75C19.164 22.5 19.5 22.164 19.5 21.75V11.25C19.5 10.836 19.164 10.5 18.75 10.5H5.25ZM16.5 9V6C16.5 3.519 14.481 1.5 12 1.5C9.519 1.5 7.5 3.519 7.5 6V9H16.5Z" fill="black"/>
<path d="M12 18.75C11.586 18.75 11.25 18.414 11.25 18V15C11.25 14.586 11.586 14.25 12 14.25C12.414 14.25 12.75 14.586 12.75 15V18C12.75 18.414 12.414 18.75 12 18.75Z" fill="black"/>
</svg>
